packages/icons/svg/Social_Comment_Community_32px.svg

<svg xmlns="http://www.w3.org/2000/svg" viewBox="0 0 32 32"><path d="M25 16V5a2 2 0 00-2-2H5a2 2 0 00-2 2v14a2 2 0 002 2h4v3.13a1 1 0 001.55.83L16 21.33V26a1 1 0 001 1h3.84l2.58 1.84A1 1 0 0025 28v-1h3a1 1 0 001-1v-9a1 1 0 00-1-1zm-9.61 3.34L11 22.26V19H5V5h18v14h-7.11zM28 26h-4v2l-2.84-2H17v-5h6a2 2 0 002-2v-2h3z"/></svg>

<svg xmlns="http://www.w3.org/2000/svg" viewBox="0 0 32 32"><defs></defs><g id="Icon"><path  d="M25,16V5a2,2,0,0,0-2-2H5A2,2,0,0,0,3,5V19a2,2,0,0,0,2,2H9v3.13a1,1,0,0,0,1.55.83L16,21.33V26a1,1,0,0,0,1,1h3.84l2.58,1.84A1,1,0,0,0,25,28V27h3a1,1,0,0,0,1-1V17a1,1,0,0,0-1-1Zm-9.61,3.34L11,22.26V19H5V5H23V19H15.89ZM28,26H24v2l-2.84-2H17V21h6a2,2,0,0,0,2-2V17h3Z"/></g></svg>
